icon-themes/breeze_svg/cmd/lc_symbolshapes.forbidden.svg

<svg viewBox="0 0 24 24" xmlns="http://www.w3.org/2000/svg"><path d="m12 4c-4.41828 0-8 3.58172-8 8s3.58172 8 8 8 8-3.58172 8-8-3.58172-8-8-8zm0 2c3.31371 0 6 2.68629 6 6 0 1.28933-.432918 2.459418-1.125 3.4375l-8.3125-8.3125c.9780821-.6920819 2.14817-1.125 3.4375-1.125zm-4.875 2.5625 8.3125 8.3125c-.978082.692082-2.14817 1.125-3.4375 1.125-3.31371 0-6-2.68629-6-6 0-1.28933.4329181-2.4594179 1.125-3.4375z" fill="#4d4d4d"/></svg>

<svg xmlns="http://www.w3.org/2000/svg" viewBox="0 0 24 24">
 <path 
     style="fill:#4d4d4d" 
     d="M 12 4 C 7.58172 4 4 7.58172 4 12 C 4 16.41828 7.58172 20 12 20 C 16.41828 20 20 16.41828 20 12 C 20 7.58172 16.41828 4 12 4 z M 12 6 C 15.31371 6 18 8.68629 18 12 C 18 13.28933 17.567082 14.459418 16.875 15.4375 L 8.5625 7.125 C 9.5405821 6.4329181 10.71067 6 12 6 z M 7.125 8.5625 L 15.4375 16.875 C 14.459418 17.567082 13.28933 18 12 18 C 8.68629 18 6 15.31371 6 12 C 6 10.71067 6.4329181 9.5405821 7.125 8.5625 z "
     />
 </svg>
